src/pos-icons/video-box-off.svg

<svg height="24" viewBox="0 0 24 24" width="24" xmlns="http://www.w3.org/2000/svg"><path d="m6 8h.73l7.27 7.27v.73h-8m-3.73-15-1.27 1.27 2 2.01c-.59.34-1 .98-1 1.72v12a2 2 0 0 0 2 2h14.73l2 2 1.27-1.27m-2-16.73h-12.18l4 4h2.18v2.18l.57.57 3.43-2.75v6.18l4 3.99c0-.06 0-.11 0-.17v-12a2 2 0 0 0 -2-2z"/></svg>

<?xml version="1.0" encoding="UTF-8"?><!DOCTYPE svg PUBLIC "-//W3C//DTD SVG 1.1//EN" "http://www.w3.org/Graphics/SVG/1.1/DTD/svg11.dtd"><svg xmlns="http://www.w3.org/2000/svg" xmlns:xlink="http://www.w3.org/1999/xlink" version="1.1" id="mdi-video-box-off" width="24" height="24" viewBox="0 0 24 24"><path d="M6,8H6.73L14,15.27V16H6M2.27,1L1,2.27L3,4.28C2.41,4.62 2,5.26 2,6V18A2,2 0 0,0 4,20H18.73L20.73,22L22,20.73M20,4H7.82L11.82,8H14V10.18L14.57,10.75L18,8V14.18L22,18.17C22,18.11 22,18.06 22,18V6A2,2 0 0,0 20,4Z" /></svg>
